src/img/icons/document-pdf.svg

<svg width="32" height="32" viewBox="0 0 32 32" fill="none" xmlns="http://www.w3.org/2000/svg">
<path d="M7.30484 30C6.67165 30 6.12921 29.7742 5.67753 29.3225C5.22584 28.8708 5 28.3284 5 27.6952V4.30484C5 3.67165 5.22584 3.12921 5.67753 2.67753C6.12921 2.22584 6.67165 2 7.30484 2H18.7893C19.1051 2 19.4054 2.06239 19.6901 2.18716C19.9745 2.31193 20.2224 2.47686 20.4339 2.68195L26.4233 8.67137C26.6284 8.88284 26.7933 9.13079 26.9181 9.41521C27.0429 9.69988 27.1053 10.0001 27.1053 10.316V27.6952C27.1053 28.3284 26.8794 28.8708 26.4277 29.3225C25.9761 29.7742 25.4336 30 24.8004 30H7.30484ZM18.8169 9.08105V3.85168H7.30484C7.19161 3.85168 7.08772 3.89884 6.99316 3.99316C6.89884 4.08772 6.85168 4.19161 6.85168 4.30484V27.6952C6.85168 27.8084 6.89884 27.9123 6.99316 28.0068C7.08772 28.1012 7.19161 28.1483 7.30484 28.1483H24.8004C24.9136 28.1483 25.0175 28.1012 25.1121 28.0068C25.2064 27.9123 25.2536 27.8084 25.2536 27.6952V10.2338H19.9693C19.6466 10.2338 19.3738 10.1225 19.1511 9.89968C18.9283 9.67667 18.8169 9.40379 18.8169 9.08105Z" fill="#131212"/>
<path fill-rule="evenodd" clip-rule="evenodd" d="M12.1667 19.846H10.6793V21.923C10.6793 22.0803 10.6203 22.2179 10.5023 22.3357C10.3846 22.4537 10.247 22.5127 10.0897 22.5127C9.93233 22.5127 9.79467 22.4537 9.67667 22.3357C9.55889 22.2179 9.5 22.0803 9.5 21.923V16.5897C9.5 16.4323 9.55889 16.2948 9.67667 16.177C9.79467 16.059 9.93233 16 10.0897 16H12.1667C12.5007 16 12.7808 16.113 13.007 16.339C13.233 16.565 13.346 16.8451 13.346 17.1793V18.6667C13.346 19.0009 13.233 19.281 13.007 19.507C12.7808 19.733 12.5007 19.846 12.1667 19.846ZM10.6793 18.6667V17.1793H12.1667V18.6667H10.6793Z" fill="#131212"/>
<path fill-rule="evenodd" clip-rule="evenodd" d="M18.1607 22.1737C17.9347 22.3997 17.6546 22.5127 17.3203 22.5127H15.2947C15.1376 22.5127 15 22.4537 14.882 22.3357C14.764 22.2179 14.705 22.0803 14.705 21.923V16.5897C14.705 16.4323 14.764 16.2948 14.882 16.177C15 16.059 15.1376 16 15.2947 16H17.3203C17.6546 16 17.9347 16.113 18.1607 16.339C18.3869 16.565 18.5 16.8451 18.5 17.1793V21.3333C18.5 21.6676 18.3869 21.9477 18.1607 22.1737ZM15.8843 17.1793V21.3333H17.3203V17.1793H15.8843Z" fill="#131212"/>
<path d="M21.1667 19.846H22.1667C22.3238 19.846 22.4613 19.787 22.5793 19.669C22.6973 19.5512 22.7563 19.4137 22.7563 19.2563C22.7563 19.099 22.6973 18.9614 22.5793 18.8437C22.4613 18.7257 22.3238 18.6667 22.1667 18.6667H21.1667V17.1793H22.1667C22.3238 17.1793 22.4613 17.1203 22.5793 17.0023C22.6973 16.8846 22.7563 16.747 22.7563 16.5897C22.7563 16.4323 22.6973 16.2948 22.5793 16.177C22.4613 16.059 22.3238 16 22.1667 16H20.5767C20.4196 16 20.282 16.059 20.164 16.177C20.046 16.2948 19.987 16.4323 19.987 16.5897V21.923C19.987 22.0803 20.046 22.2179 20.164 22.3357C20.282 22.4537 20.4196 22.5127 20.5767 22.5127C20.734 22.5127 20.8717 22.4537 20.9897 22.3357C21.1077 22.2179 21.1667 22.0803 21.1667 21.923V19.846Z" fill="#131212"/>
</svg>

<svg xmlns="http://www.w3.org/2000/svg" viewBox="0 0 32 32">
  <path fill="currentColor" d="M7.305 30a2.219 2.219 0 0 1-1.627-.677A2.22 2.22 0 0 1 5 27.695V4.305c0-.633.226-1.176.678-1.627A2.22 2.22 0 0 1 7.305 2h11.484c.316 0 .616.062.901.187a2.5 2.5 0 0 1 .744.495l5.99 5.99c.204.21.37.459.494.743.125.285.187.585.187.901v17.38a2.22 2.22 0 0 1-.677 1.627A2.219 2.219 0 0 1 24.8 30H7.305ZM18.817 9.081v-5.23H7.305a.434.434 0 0 0-.312.142.434.434 0 0 0-.141.312v23.39c0 .113.047.217.141.312a.434.434 0 0 0 .312.141H24.8a.434.434 0 0 0 .312-.141.434.434 0 0 0 .142-.312V10.234h-5.285c-.322 0-.595-.111-.818-.334a1.114 1.114 0 0 1-.334-.819Z"/>
  <path fill="currentColor" fill-rule="evenodd" d="M12.167 19.846h-1.488v2.077a.565.565 0 0 1-.177.413.566.566 0 0 1-.826 0 .566.566 0 0 1-.176-.413V16.59c0-.158.059-.295.177-.413A.566.566 0 0 1 10.09 16h2.077c.334 0 .614.113.84.339.226.226.339.506.339.84v1.488c0 .334-.113.614-.339.84a1.142 1.142 0 0 1-.84.339Zm-1.488-1.18V17.18h1.488v1.488h-1.488Zm7.481 3.508a1.141 1.141 0 0 1-.84.339h-2.025a.566.566 0 0 1-.413-.177.565.565 0 0 1-.177-.413V16.59c0-.158.059-.295.177-.413a.566.566 0 0 1 .413-.177h2.025c.335 0 .615.113.84.339.227.226.34.506.34.84v4.154c0 .335-.113.615-.34.84Zm-2.276-4.995v4.154h1.436V17.18h-1.436Z" clip-rule="evenodd"/>
  <path fill="currentColor" d="M21.167 19.846h1a.566.566 0 0 0 .412-.177.565.565 0 0 0 .177-.413.565.565 0 0 0-.177-.412.566.566 0 0 0-.412-.177h-1v-1.488h1a.566.566 0 0 0 .412-.177.565.565 0 0 0 .177-.412.565.565 0 0 0-.177-.413.566.566 0 0 0-.412-.177h-1.59a.566.566 0 0 0-.413.177.565.565 0 0 0-.177.413v5.333c0 .157.059.295.177.413a.566.566 0 0 0 .826 0 .565.565 0 0 0 .177-.413v-2.077Z"/>
</svg>
